map_marker_monochrome/openmoji_biting_lip.svg

<svg xmlns="http://www.w3.org/2000/svg" width="24" height="24" viewBox="0 0 24 24"> <g transform="translate(0.0 4.862118315354405) scale(0.4137902425881504)">
  
  <g
     id="line"
     transform="translate(-6.9998082,-21.5)">
    <path
       fill="none"
       stroke="#000"
       stroke-linecap="round"
       stroke-width="2"
       d="M 64,37 C 64,42.5 61,55 50.5,55 31.7819,55 18.3025,46.0195 12,40.745"
       id="path2" />
    <path
       fill="none"
       stroke="#000"
       stroke-linecap="round"
       stroke-width="2"
       d="m 64,37 c -2.5,2 -9.1,5.6 -15.5,6 -4.4055,0.2753 -7.4463,-1.4205 -9.9575,-3"
       id="path4" />
    <path
       fill="none"
       stroke="#000"
       stroke-linecap="round"
       stroke-width="2"
       d="m 8,37 c 0.83333,0.3333 3.3,1 6.5,1 4,0 6,-5 23.5,-5 12,0 26,4 26,4"
       id="path6" />
    <path
       fill="#000"
       d="m 7.01942,36.8039 c -0.10831,0.5415 0.2429,1.0684 0.78446,1.1767 0.54156,0.1083 1.06839,-0.2429 1.1767,-0.7845 z M 30,22.5 30.5547,21.6679 C 30.3904,21.5584 30.1974,21.5 30,21.5 Z m 6.5,3.5 c 0.5523,0 1,-0.4477 1,-1 0,-0.5523 -0.4477,-1 -1,-1 z M 8.98058,37.1961 C 9.18221,36.188 9.93308,34.8111 11.2213,33.2652 12.49,31.7428 14.2085,30.1417 16.2132,28.6837 20.2438,25.7524 25.2896,23.5 30,23.5 v -2 c -5.2896,0 -10.7438,2.4976 -14.9632,5.5663 -2.1203,1.542 -3.9643,3.2534 -5.3519,4.9185 -1.36798,1.6416 -2.36711,3.3272 -2.66548,4.8191 z M 29.4453,23.3321 c 0.2127,0.1418 0.4158,0.3201 0.8183,0.6311 0.366,0.2828 0.8195,0.6097 1.3851,0.9161 C 32.7948,25.5001 34.3334,26 36.5,26 v -2 c -1.8334,0 -3.0448,-0.4167 -3.8987,-0.8793 -0.4344,-0.2353 -0.7934,-0.4917 -1.1149,-0.7401 -0.285,-0.2203 -0.6444,-0.5211 -0.9317,-0.7127 z"
       id="path8" />
    <path
       fill="#000"
       d="m 64.9806,36.8039 c 0.1083,0.5415 -0.2429,1.0684 -0.7845,1.1767 -0.5415,0.1083 -1.0684,-0.2429 -1.1767,-0.7845 z M 42.5,22.5 41.9453,21.6679 C 42.1096,21.5584 42.3026,21.5 42.5,21.5 Z M 36,26 c -0.5523,0 -1,-0.4477 -1,-1 0,-0.5523 0.4477,-1 1,-1 z M 63.0194,37.1961 C 62.8154,36.1762 62.0859,34.7944 60.8456,33.2516 59.6224,31.73 57.9659,30.1307 56.025,28.675 52.1233,25.7487 47.2058,23.5 42.5,23.5 v -2 c 5.2942,0 10.6267,2.5013 14.725,5.575 2.0591,1.5443 3.8401,3.2575 5.1794,4.9234 1.3222,1.6447 2.2802,3.3254 2.5762,4.8055 z M 43.0547,23.3321 c -0.2127,0.1418 -0.4158,0.3201 -0.8183,0.6311 -0.366,0.2828 -0.8195,0.6097 -1.3851,0.9161 C 39.7052,25.5001 38.1666,26 36,26 v -2 c 1.8334,0 3.0448,-0.4167 3.8987,-0.8793 0.4344,-0.2353 0.7934,-0.4917 1.1149,-0.7401 0.285,-0.2203 0.6444,-0.5211 0.9317,-0.7127 z"
       id="path10" />
    <path
       fill="none"
       stroke="#000"
       stroke-linecap="round"
       stroke-width="2"
       d="m 28,36 c 0,0.5 0.3,1.5 1.5,1.5 1.2,0 3.1667,0 5,0 0.5,0 1.5,-0.3 1.5,-1.5"
       id="path12" />
    <path
       fill="none"
       stroke="#000"
       stroke-linecap="round"
       stroke-width="2"
       d="m 36,36 c 0,0.5 0.3,1.5 1.5,1.5 1.2,0 3.1667,0 5,0 0.5,0 1.5,-0.3 1.5,-1.5"
       id="path14" />
    <path
       fill="none"
       stroke="#000"
       stroke-linecap="round"
       stroke-width="2"
       d="m 44,36 c 0,0.5 0.3,1.5 1.5,1.5 1.2,0 3.1667,0 5,0"
       id="path16" />
    <path
       fill="none"
       stroke="#000"
       stroke-linecap="round"
       stroke-width="2"
       d="m 28,36 c 0,0.5 -0.3,1.5 -1.5,1.5 -1.2,0 -1.6667,0 -3.5,0"
       id="path18" />
  </g>
</g></svg>

<svg xmlns="http://www.w3.org/2000/svg" width="24" height="24" viewBox="0 0 24 24"> <g transform="scale(0.333333333)">  <g id="line">
    <path fill="none" stroke="#000" stroke-linecap="round" stroke-width="2" d="M64 37C64 42.5 61 55 50.5 55C31.7819 55 18.3025 46.0195 12 40.745"/>
    <path fill="none" stroke="#000" stroke-linecap="round" stroke-width="2" d="M64 37C61.5 39 54.9 42.6 48.5 43C44.0945 43.2753 41.0537 41.5795 38.5425 40"/>
    <path fill="none" stroke="#000" stroke-linecap="round" stroke-width="2" d="M8 37C8.83333 37.3333 11.3 38 14.5 38C18.5 38 20.5 33 38 33C50 33 64 37 64 37"/>
    <path fill="#000" d="M7.01942 36.8039C6.91111 37.3454 7.26232 37.8723 7.80388 37.9806C8.34544 38.0889 8.87227 37.7377 8.98058 37.1961L7.01942 36.8039ZM30 22.5L30.5547 21.6679C30.3904 21.5584 30.1974 21.5 30 21.5V22.5ZM36.5 26C37.0523 26 37.5 25.5523 37.5 25C37.5 24.4477 37.0523 24 36.5 24V26ZM8.98058 37.1961C9.18221 36.188 9.93308 34.8111 11.2213 33.2652C12.49 31.7428 14.2085 30.1417 16.2132 28.6837C20.2438 25.7524 25.2896 23.5 30 23.5V21.5C24.7104 21.5 19.2562 23.9976 15.0368 27.0663C12.9165 28.6083 11.0725 30.3197 9.6849 31.9848C8.31692 33.6264 7.31779 35.312 7.01942 36.8039L8.98058 37.1961ZM29.4453 23.3321C29.658 23.4739 29.8611 23.6522 30.2636 23.9632C30.6296 24.246 31.0831 24.5729 31.6487 24.8793C32.7948 25.5001 34.3334 26 36.5 26V24C34.6666 24 33.4552 23.5833 32.6013 23.1207C32.1669 22.8854 31.8079 22.629 31.4864 22.3806C31.2014 22.1603 30.842 21.8595 30.5547 21.6679L29.4453 23.3321Z"/>
    <path fill="#000" d="M64.9806 36.8039C65.0889 37.3454 64.7377 37.8723 64.1961 37.9806C63.6546 38.0889 63.1277 37.7377 63.0194 37.1961L64.9806 36.8039ZM42.5 22.5L41.9453 21.6679C42.1096 21.5584 42.3026 21.5 42.5 21.5V22.5ZM36 26C35.4477 26 35 25.5523 35 25C35 24.4477 35.4477 24 36 24V26ZM63.0194 37.1961C62.8154 36.1762 62.0859 34.7944 60.8456 33.2516C59.6224 31.73 57.9659 30.1307 56.025 28.675C52.1233 25.7487 47.2058 23.5 42.5 23.5V21.5C47.7942 21.5 53.1267 24.0013 57.225 27.075C59.2841 28.6193 61.0651 30.3325 62.4044 31.9984C63.7266 33.6431 64.6846 35.3238 64.9806 36.8039L63.0194 37.1961ZM43.0547 23.3321C42.842 23.4739 42.6389 23.6522 42.2364 23.9632C41.8704 24.246 41.4169 24.5729 40.8513 24.8793C39.7052 25.5001 38.1666 26 36 26V24C37.8334 24 39.0448 23.5833 39.8987 23.1207C40.3331 22.8854 40.6921 22.629 41.0136 22.3806C41.2986 22.1603 41.658 21.8595 41.9453 21.6679L43.0547 23.3321Z"/>
    <path fill="none" stroke="#000" stroke-linecap="round" stroke-width="2" d="M28 36C28 36.5 28.3 37.5 29.5 37.5C30.7 37.5 32.6667 37.5 34.5 37.5C35 37.5 36 37.2 36 36"/>
    <path fill="none" stroke="#000" stroke-linecap="round" stroke-width="2" d="M36 36C36 36.5 36.3 37.5 37.5 37.5C38.7 37.5 40.6667 37.5 42.5 37.5C43 37.5 44 37.2 44 36"/>
    <path fill="none" stroke="#000" stroke-linecap="round" stroke-width="2" d="M44 36C44 36.5 44.3 37.5 45.5 37.5C46.7 37.5 48.6667 37.5 50.5 37.5"/>
    <path fill="none" stroke="#000" stroke-linecap="round" stroke-width="2" d="M28 36C28 36.5 27.7 37.5 26.5 37.5C25.3 37.5 24.8333 37.5 23 37.5"/>
  </g></g></svg>
